X:1
T:Khvalitye imya Gospodie
T:Сергeй Рахманинов, 1915
T:Воскресение Христово видевше
T:Всенощное бдение, Op. 37, No. 9
T:Public Domain
T:Public Domain
T:Public Domain
T:Public Domain
T:Public Domain
T:Public Domain
C:Sergei Rakhmanninov
Z:Public Domain
%%score [ ( 1 2 ) ( 3 4 ) ( 5 6 ) ( 7 8 ) ]
L:1/8
Q:1/2=50
M:8/4
K:F
V:1 treble nm="Сопрано" snm="С."
V:2 treble 
V:3 treble nm="Альтъ" snm="А."
V:4 treble 
V:5 treble-8 nm="Теноръ" snm="Т."
V:6 treble-8 
V:7 bass nm="Басъ" snm="Б."
V:8 bass 
V:1
"^Не Скоро. \n(движение половинами)\nNot fast. (beat half-notes)" z16 | z16 | %2
 z4"^Так же акцентируя, но в пределах знаков\nAccenting, even within slurs."!pp!"^по–кло-ним–ся  Свя–то       –        му \npo –klo–nim–sya  Svya-to       –       mu" [Ad]2 [Ad]2!<(! !tenuto![Ge]4 [Ad]2 [Ad]2 (!tenuto!d2!>(! c2 B2) c2!<)!!>)! | %3
"^Гос –  по –ду   И –  и  – су   –  су,  Е   –   ди   –   но– му     без–греш–но–му. \nGos –  po –du    I  –  i   –  su   –  su,  Ye  –  di     –   no –mu    bez–gresh–no–mu."!>(! !tenuto![Ad]4 [Ad]2 [Ad]2!pp! [Ad]2 [Ge]2 !tenuto![Ad]4 [Ad]2 [Ad]2!>)! | %4
!<(! !tenuto![ce]4!>(! [Bd]2 [Ad]4!<(! [Ad]2 !tenuto![ce]4!>(! [Bd]2!pp! [Ad]2-!<)!!>)!!<)!!>)! | %5
 [Ad]4 z4 z8 | z16 z8 | %7
 z4!pp!"^и  свя-то-е  вос-кре–сен–и    –     е    Тво-е               по    –\ni  svya-to-ye vos-kre–sen– i      –    ye  Tvo-ye             po    –" [Fd]2 [Ge]2 [Af]2 [Ae]2 [Ad]2 [Ac]2 | %8
 [Ad]2 [Ad]2 [Ad]2 [Ac]2 (!tenuto!d2 cd)!<(! (!tenuto!e2 de)!<)! | %9
!mf!"^–ем                        и           слав-им:    Ты   бо    е – си        Бог         наш,  раз–ве Те–бе  и–но–го  не             зна–ем,\n–yem                      i             slav–im:    Tui   bo   ye – si        Bog         nash,  raz –ve Tye-be i –no–vo  ne            zna-yem," (!tenuto!f3!>(! e f2 e2) (dc d2)!pp! !tenuto![ce]4 !fermata![ce]4!>)! | %10
"^Немного скорее. \nС возможной и твердостью\nA bit faster.  With intensity and firmness"!ff![Q:1/2=70] !tenuto!g4 !tenuto!g4 !tenuto!g2 !>!e4 (!>!g2 fe) !>!d2 | %11
 !tenuto!g4 g2 e2 g2 f2 e2 e2 (!>!g2 fe) d2 e2 | %12
"^И      –     мя  Тво – е       и  –  ме–ну– ем.\n I       –    mya Tvo–ye      i  –  me-nu–yem."!>(! (!tenuto!f4 e4) d4 c4!>)! | %13
!p! d4!>(! cB c2!pp! !tenuto!d4 !tenuto!d4-!>)! |"^Прежний темп\nFirst tempo"[Q:1/2=50]!pp! d32- | %15
 d16- | (d4 c4 d4 e4 | d4 c4 B4 c4- c8 | %18
 d4)!p!"^по-кло-ним –ся Свя– \npo- klo–nim–sya Svya–"!<(! [Fd]2 [Ge]2 f2!mf! e2!>(! [Ad]2 [Ac]2!<)!!>)! | %19
"^–то–му Хри-сто-ву        вос-кре –се  –  ни    –     ю:           се      бо    при-и     –     де кре-стом  pа-дость все-му \n– to–mu Khri-sto-vu         vos-kre – se  –  ni      –     yu:         sye    bo    pri – i      –    dye kre-stom   ra-dost'    vse-mu" !tenuto![Ad]4 [Ad]2 [Ac]2 [Ad]2 [Ad]2!>(! [Ad]2 [Ac]2!>)! | %20
!pp! !tenuto![Ad]4 cd e2 !fermata![Ad]8 |!f! !>!B4 !>!G4 !>!A4 (!>!B2 AB) c2 B2 !>!A4 | %22
!ff!!>(! !>![Bd]6!p! [Bd]2 [Bd]2 [Ac]2!>)! | %23
"^ми       –       –     ру,             ра       –       –       –   дость;      по       –       –       –       –          ем     вос-кре-сен-и–е    Е – \nmi        –       –     ru,              ra       –       –       –     dost';       po       –       –       –       –          em     vos-kre–sen–i–ye   Ye –"!p! ([Bd]2!<(! F2 G2 B2) (d2 f2)!<)! | %24
!ff! [fa]12 [df]4 | ([fa]4 [eg]4) | ([fa]2 [eg]2) [df]2 [eg]2 [df]2 [df]2 [Ae]2 [df][eg] | %27
"^–го:                             рас – пя       –       –       –  ти– е    бо     пре–тер– нев,\n–vo:                              ras – pya      –        –       – ti – ye   bo     pre –ter –nyev," [df]8 z2[Q:1/2=40] [df][ce]!ff! (!>![Gd]4- | %28
 [Gd]2!>(! [Ec]2) [Gd]2 [ce]2!p! !tenuto![Gd]4 [Gd][Ac] B2!>)! |!pp!!>(! B16-!>)! | B16- | %31
 (B8 c8) | %32
!ppp!"^смер–ти–ю смерть pаз–pу – ши.\nsmer– ti –yu smert'  raz – ru  – shi." [Ad]4 [Ac]2 [Ad]2 !tenuto![Ad]4 cd e2 | %33
 !fermata![Ad]16 |] %34
V:2
 x16 | x16 | x4 x4 x4 x4 (A4 G2) FG | x20 | x20 | x16 | x24 | x16 | x4 x4 A4 (A2 B2) | %9
 c8 A4 x4 x4 | x20 | x24 | x16 | x16 | x32 | x16 | x16 | x24 | x4 x4 A4 x4 | x16 | x4 A4 x8 | x24 | %22
 x12 | x4 x4 d4 | x16 | x8 | x16 | x16 | x16 | x16 | x16 | x16 | x4 x4 x4 A2 A2 | x16 |] %34
V:3
 z16 | z16 | %2
 z4!pp! [DF]2 [DF]2 !tenuto![A,E]4!<(! [DF]2 [DF]2 !tenuto![DF]2!>(! [CE]2 [B,D]2 [A,C]2!<)!!>)! | %3
!>(! !tenuto![DF]4 [DF]2 [DF]2!pp! [DF]2 [CE]2 !tenuto![DF]4 [DF]2 [DF]2!>)! | %4
!<(! !tenuto![CG]4!>(! F2 [DF]4!<(! [DF]2 [CG]4!>(! F2!pp! [DF]2-!<)!!>)!!<)!!>)! | [DF]4 z4 z8 | %6
 z16 z8 | z4!pp! [A,D]2 [CE]2 [DF]2 [EG]2 [FA]2 [EG]2 | [DF]2 F2 [A,F]2 [CE]2 F4!<(! G4!<)! | %9
!mf! !tenuto!A8 ([FA][EG] [DF]2)!pp! !tenuto![CG]4 !fermata![CG]4 | %10
!ff! !tenuto!B4 !tenuto!B4 !tenuto!B2 !>![Gc]4 (!>!d3 c) !>!B2 | %11
 !tenuto!B4 B2 [Gc]2 B2 [Ad]2 [Gc]2 [Ac]2 (!>!d3 c) B2 B2 | !tenuto!A8 [FA]4 [EA]4 | %13
!p! [DF]4 _E!>(!D E2!pp! D4 D4-!>)! | D32- | D16- | (D4 C4 D4 E4 | D4 C4 B,4 C4- C8 | %18
 D4)!p!!<(! [A,D]2 [CE]2 [DF]2!mf! [EG]2!>(! [FA]2 [EG]2!<)!!>)! | %19
 !tenuto![DF]4 [FA]2 [EG]2 [DF]2 F2!>(! [A,F]2 [CE]2!>)! |!pp! !tenuto![DF]4 G4 !fermata![DF]8 | %21
!f! !>!D4 !>!D4 !>![DA]4 !>!G4 G2 E2 !>!F4 |!ff!!>(! !>![FB]6!p! F2 F2 F2!>)! | %23
"^ми       –       –     ру,            Bсе       –        гда бла-го-сло–вя  –   ще     Гос  –  по  –   да.                               . . . рас– \nmi        –       –     ru,             Vsye     –        gda bla–go–slo-vya-shchye  Gos  –  po   –  da.                               . . . ras –"!p! (F2!<(! D2 B,2 D2) (F2 A2)!<)! | %24
!ff! (d4 c4) d2 d2 d2 d2 |"^*" fe d2 cd e2 | !>!d8 z4!ff! !>!A4 | %27
 !>!B4 !>!B,2 !>!B,2 !>!B,4 !>!GA !>!B2 |!ff! !>!B8- B8- |!>(! (B8!pp! B,8-)!>)! | B,16- | %31
 (B,8 C8) |!ppp! !tenuto![DF]4 [A,E]2 [DF]2 !tenuto![DF]4 E2 [CE]2 | !fermata![DF]16 |] %34
V:4
 x16 | x16 | x24 | x20 | x20 | x16 | x24 | x16 | x2 C=B, x4 (D2 ED) (C2 DE) | %9
 (F3!>(! G A2 G2) x4 x8 | x4 x4 x4 x2 (B2 AG) B2 | x4 x4 x4 x4 (B2 AG) B2 x2 | (A4 G4) x8!>)! | %13
 x16 | x32 | x16 | x16 | x24 | x16 | x4 x4 x2 C=B, x4 | x4 ED C2 x8 | x24 | x12 | x12 | x16 | %25
 cB A2 AB c2 | x16 | x16 | x16 | x16 | x16 | x16 | x4 x4 x4 ED x2 | x16 |] %34
V:5
!f!"^Сильно. Решительно. Акцентируя все ноты\nStrong. Forceful. Accenting all notes""^Вос– кре–сен-и–е    Хри–сто   –   во       ви      –       дев  –  ше,\nVos – kre –sen–i-ye   Khri– sto   –   vo        vi       –       dev  –  she," d4 c4 d2 d2 d2 d2 | %1
 (!>!fe d2) d4 (c2 d2 e2) d2 |!pp!!>(! d16- x8!>)! | d16- x4 | d16- d4 | %5
!f! z4"^Как паньше\nAs before""^Кре  –   сту      Тво–е–\nKre   –   stu       Tvo-ye–" (d2 e2) f4 f2 f2 | %6
"^–му      по-кла-ня      –       ем–ся,   Хри     –    сте,\n–mu      po-kla–nya     –   yem-cya,  Khri    –     ste," (e2 d2) c2 d2 (e2 fe d2) e2 d4 (ed c2) | %7
!pp!!>(! c16-!>)! | c16- | c16 z4 | %10
!ff!"^Ты   бо    е – си        Бог         наш,  раз–ве Те–бе  и–но–го  не             зна–ем,\nTui   bo   ye – si        Bog         nash,  raz –ve Tye-be i –no–vo  ne            zna-yem," !tenuto![dg]4 !tenuto![dg]4 !tenuto![dg]2 !>![ce]4 (!>!g2 de) !>!f2 | %11
 !tenuto![dg]4 [dg]2 [ce]2 [dg]2 [df]2 [ce]2 [ce]2 (!>!g2 de) f2 [eg]2 | %12
"^И      –     мя  Тво – е       и  –  ме–ну– ем.\n I       –    mya Tvo–ye      i  –  me-nu–yem."!>(! (!tenuto![cf]4 [Ae]4) [Ad]4 [Gc]4!>)! | %13
!p! [Fd]4!>(! .[Gc]2 .[Gc]2!pp! !tenuto![GB]4 (!tenuto![G-B]4!>)! | %14
 [GB]4) z4 z4!pp!"^При-и-ди–те,  вси                      вер-ни-и,              по-кло- \n Pri– i– di –tye,  vsi                       ver–ni –i,               po–klo–" [Ad]2 [Ad]2 !tenuto![Ge]4 !tenuto![Ad]4 (!tenuto!d2 c2 B2 c2) | %15
!pp! [Ad]2 [Ad]2 ([Ad]2 [Be]2 [Ad]4) [Ad]2 [Ac]2 | %16
!pp!"^–ним      –       –         ся   Свя     –      то –  му  Хри-сто-ву   вос-кре-се         –         ни  –  ю: \n–nim       –       –        sya   Svya   –      to   – mu Khri-sto-vu    vos–kre–se         –         ni    – yu:" (!tenuto!d4 cd e2 f2) f2 (ed c2) | %17
 !tenuto![Gd]4 [Gc]2 [Ac]2 [Gd]2 cd [ce]2 [cd]2 (e2 de)!>(! f2 [ce]2!>)! | d16- | d16- | %20
 !fermata!d16 | %21
!f!"^се      бо    при-и     –     де кре-стом  pа-дость все-му \nsye    bo    pri – i      –    dye kre-stom   ra-dost'    vse-mu" !>!B4 !>!G4 !>!d4 !>!d4 c2 c2 !>!c4 | %22
!ff!!>(! !>![df]6!p! [Bd]2 [Bd]2 c2!>)! | %23
"^ми       –       –     ру,             ра       –       –       –   дость;      по       –       –       –       –          ем     вос-кре-сен-и–е    Е – \nmi        –       –     ru,              ra       –       –       –     dost';       po       –       –       –       –          em     vos-kre–sen–i–ye   Ye –"!p!!<(! [Bd]8 [df]4!<)! | %24
!ff! [fa]12 [df]4 | [fa]4 [eg]4 | ([fa]2 [eg]2) [df]2 [eg]2 [df]2 [df]2 [Ae]2 [df][eg] | %27
"^–го:                             рас – пя       –       –       –  ти– е    бо     пре–тер– нев,                      смер–ти–ю смерть pаз-pу–\n–vo:                              ras – pya      –        –       – ti – ye   bo     pre –ter –nyev,                      smer– ti–yu smert' raz–ru–" [df]8 z2 [df][ce]!ff! ((([G-d]4 | %28
 [Gd]2))!>(! [Ec]2) [Gd]2 [ce]2!p! !tenuto![Gd]4 [Gd][Ac] B2!>)! |!>(! B12!pp! z4!>)! | %30
!p! !tenuto![Gd]4 [Gc]2 [Gd]2 !tenuto![Gd]4 [df][ce] [Gd]2 |"^–ши.\n–shi." (!tenuto!d8 c2 d2 e4 | %32
!ppp! d16-) | !fermata!d16 |] %34
V:6
 x16 | x16 | x24 | x20 | x20 | x16 | x24 | x16 | x16 | x20 | x4 x4 x4 x2 (d3 e) f2 | %11
 z4 z4 z4 z4 (d3 e) f2 e2 | x16 | x16 | x4 x4 x4 x4 x4 x4 (A4 G2 FG) | x16 | A8- A2 A2 A4 | %17
 x4 x4 x2 G2 x2 x2 c6 x2 | !tenuto!A4 z4 z8 | z16 | z16 | x24 | x12 | x12 | x16 | x8 | x16 | x16 | %28
 x16 | x16 | x16 | (G8- G8 | A16-) | A16 |] %34
V:7
!f! D,4 C,4 D,2 D,2 D,2 D,2 | (!>!F,E, D,2) D,4 (C,2 D,2 E,2) D,2 |!pp!!>(! D,16- x8!>)! | %3
 D,16- x4 | D,16- D,4 |!f! z4 (D,2 E,2) F,4 F,2 F,2 | %6
 (E,2 D,2) C,2 D,2 (E,2 F,E, D,2) E,2 D,4 (E,D, C,2) |!pp!!>(! C,16-!>)! | C,16- | C,16 z4 | %10
!ff! !tenuto!G,4 !tenuto!G,4 !tenuto!G,2 !>!B,4 (!>!G,2 B,C) !>!D2 | %11
 !tenuto!G,4 G,2 B,2 G,2 A,2 B,2 A,2 (G,2 B,C) D2 C2 |!>(! (!tenuto!F,4 C,4) D,4 A,,4!>)! | %13
!p! B,,4!>(! .[C,_E,]2 .[C,E,]2!pp! !tenuto![G,,D,]4 (!tenuto![G,,-D,]4!>)! | %14
 [G,,D,]4) z4 z4!pp! [D,F,]2 [D,F,]2 !tenuto![A,,E,]4 !tenuto![D,F,]4 (!tenuto![D,F,]2 [C,E,]2 [B,,D,]2 [A,,C,]2) | %15
!pp! [D,F,]2 [D,F,]2 ([D,F,]2 [C,G,]2 [D,F,]4) [D,F,]2 [E,G,]2 | %16
!pp! (!tenuto![F,A,]4 [E,G,][D,F,] [C,E,]2 [D,F,]2) [D,F,]2 E,4 | %17
 D,4 E,2 E,2 D,2 D,2 [C,G,]2 [A,,F,]2 ([C,G,]2 [A,,F,][G,,G,]!>(! [F,,A,]2) [C,G,]2!>)! | %18
 !tenuto!F,4 z4 z8 | z16 | z16 |!f! !>!F,4 !>![B,,D,]4 !>![D,A,]4 !>!G,3 F, E,2 C,2 !>!F,4 | %22
!ff!!>(! !>!B,6!p! B,2 B,2 F,2!>)! | %23
"^ми       –       –     ру,            Bсе       –        гда бла-го-сло–вя  –   ще     Гос  –  по  –   да.                               . . . рас– \nmi        –       –     ru,             Vsye     –        gda bla–go–slo-vya-shchye  Gos  –  po   –  da.                               . . . ras –"!p! (B,2!<(! [B,,F,]2 D,2 F,2) (B,2 A,2)!<)! | %24
!ff!"^* Мелкие ноты со штилями вниз\n* Small notes with less intensity" (D4 C4) D2 D2 D2 D2 | %25
"^*" FE D2 CD E2 | !>!D8 z4!ff! !>!A,4 | !>!B,4 !>!B,,2 !>!B,,2 !>!B,,4 !>!G,A, !>!B,2 | %28
!ff! !>!B,16- |!>(! B,12!pp! z4!>)! | %30
!p! !tenuto![G,,D,]4 [C,E,]2 [G,,D,]2 !tenuto![G,,D,]4 [D,F,][C,E,] [G,,D,]2 | %31
 (!tenuto!D,8 E,2 F,2 G,4 |!ppp! D,16-) | !fermata!D,16 |] %34
V:8
 x16 | x16 | x24 | x20 | x20 | x16 | x24 | x16 | x16 | x20 | x20 | x24 | x16 | x16 | x32 | x16 | %16
 x4 x4 x4 (C,B,, A,,2) | B,,4 C,B,, A,,2 G,,2 A,,B,, x4 x8 | D,16- | D,16- | !fermata!D,16 | x24 | %22
 x12 | x12 | x16 | CB, A,2 A,B, C2 | x16 | x16 | x16 | x16 | x16 | (G,,8 A,,8 | ([D,,A,,-]16) | %33
 [D,,A,,]16) |] %34

